picto/departure-right.svg

<svg class="color-immutable" width="24" height="24" viewBox="0 0 24 24" fill="none" xmlns="http://www.w3.org/2000/svg"><path d="M0 22.5V1.5C0 0.675 0.675 0 1.5 0H22.5C23.325 0 24 0.675 24 1.5V22.5C24 23.325 23.325 24 22.5 24H1.5C0.675 24 0 23.325 0 22.5Z" fill="#2D327D"/><path d="M20.813 21.185H3.18799C3.08599 21.185 3.00299 21.102 3.00299 21C3.00299 20.898 3.08599 20.815 3.18799 20.815H20.813C20.915 20.815 20.998 20.898 20.998 21C20.998 21.102 20.915 21.185 20.813 21.185Z" fill="white"/><path d="M21.119 8.80798C20.822 8.62898 20.5 8.49499 20.164 8.40999C19.483 8.23698 18.766 8.26899 18.103 8.50199L12.608 10.502L5.60899 4.79099L4.15099 5.19499L7.74399 12.273L5.19999 13.198L3.44399 11.019L2.36899 11.467L3.92999 15.196H9.28199L19.887 11.336C20.402 11.149 20.876 10.863 21.282 10.495V10.496C21.437 10.356 21.546 10.174 21.597 9.97298C21.713 9.52098 21.518 9.04798 21.119 8.80798Z" fill="white"/></svg>

<svg class="color-immutable" width="24" height="24" viewBox="0 0 24 24" fill="none" xmlns="http://www.w3.org/2000/svg"><g clip-path="url(#a)"><path d="M0 22.5v-21C0 .675.675 0 1.5 0h21c.825 0 1.5.675 1.5 1.5v21c0 .825-.675 1.5-1.5 1.5h-21C.675 24 0 23.325 0 22.5Z" fill="#2D327D"/><path d="M20.813 21.185H3.188a.185.185 0 0 1 0-.37h17.625a.185.185 0 0 1 0 .37ZM21.119 8.808a3.567 3.567 0 0 0-3.016-.306l-5.495 2-6.999-5.711-1.458.404 3.593 7.078-2.544.925-1.756-2.179-1.075.448 1.561 3.729h5.352l10.605-3.86a4.226 4.226 0 0 0 1.395-.841v.001a1.054 1.054 0 0 0-.163-1.688Z" fill="#fff"/></g><defs><clipPath id="a"><path fill="#fff" d="M0 0h24v24H0z"/></clipPath></defs></svg>
